X:1
T:Mickey Mouse Theme
M:4/4
L:1/4
K:C
 c c c c| c c c c| d c B A| G3 z| c c c2| c c c2| e c d B| c2 c3/2 c/2|\
 A4-| A2 c c| G4-| G z z G| c c c d| e c B c| d4-| d2 z d| c c c c|\
 c c c c| d c B A| G4| c c c2| c c c2| e c d B| c4-| c2 z||
